src/main/resources/icons/AllIcons/actions/groupByMethod.svg

<!-- Copyright 2000-2021 JetBrains s.r.o. Use of this source code is governed by the Apache 2.0 license that can be found in the LICENSE file. -->
<svg xmlns="http://www.w3.org/2000/svg" width="16" height="16" viewBox="0 0 16 16">
  <g fill="none" fill-rule="evenodd">
    <rect width="1" height="12" x="1" y="2" fill="#6E6E6E"/>
    <rect width="2" height="1" x="2" y="2" fill="#6E6E6E"/>
    <rect width="2" height="1" x="2" y="13" fill="#6E6E6E"/>
    <rect width="1" height="12" x="14" y="2" fill="#6E6E6E"/>
    <rect width="3" height="1" x="12" y="2" fill="#6E6E6E"/>
    <rect width="2" height="1" x="12" y="13" fill="#6E6E6E"/>
    <g transform="translate(3 2.8)">
      <circle cx="5" cy="5" r="5" fill="#F98B9E" fill-opacity=".6"/>
      <path fill="#231F20" fill-rule="nonzero" d="M7.16208571,6.81306656 L7.15843571,4.81768441 C7.17695549,4.55527354 7.10962478,4.29395822 6.96660357,4.07317013 C6.82109257,3.89953616 6.6005435,3.80706471 6.37471071,3.82500227 C6.2123727,3.82040308 6.05096408,3.85101414 5.90158214,3.91473084 C5.77401338,3.97279933 5.66416006,4.06371395 5.58326071,4.1781737 C5.49460017,4.30835496 5.4331342,4.45509583 5.40254643,4.60960227 C5.36231021,4.80487752 5.34338986,5.00394346 5.34611786,5.20330227 L5.34924643,6.81306656 L4.65081429,6.81306656 L4.64716786,4.81768441 C4.66558389,4.55554551 4.59898128,4.29445544 4.45724643,4.07317013 C4.31269096,3.89935383 4.09258154,3.80677197 3.86724643,3.82500584 C3.69770096,3.81947821 3.5291942,3.85346934 3.37505,3.92429156 C3.24321638,3.99011199 3.13282636,4.0920765 3.05676786,4.21828084 C2.97050615,4.36531926 2.91247826,4.5271813 2.88567143,4.69553441 C2.84947249,4.90994526 2.83252638,5.1271645 2.83503571,5.34459513 L2.85714286,6.81309513 L2.14336429,6.81309513 L2.14285714,3.24166656 L2.70254286,3.32488084 L2.80254286,3.88994513 L2.84071429,3.88994513 C2.8983714,3.7847455 2.97157691,3.6888511 3.05785714,3.60550227 C3.14035576,3.52630613 3.23337337,3.45885514 3.33428571,3.40505227 C3.43529453,3.35138717 3.54307364,3.31157665 3.65471429,3.28669513 C3.76806483,3.26122135 3.88389376,3.24841429 4.00007143,3.24850941 C4.26408095,3.23903789 4.52616421,3.29684506 4.76169286,3.4164987 C4.96874614,3.5338025 5.12779301,3.7203746 5.21084643,3.94338441 L5.24137857,3.94338441 C5.30384169,3.82831868 5.38421824,3.72392633 5.47949286,3.6341237 C5.57081452,3.54859422 5.67344958,3.47601135 5.78452143,3.41840941 C5.89499156,3.36118683 6.01227403,3.3182081 6.13356071,3.29050227 C6.25623179,3.26243884 6.38168493,3.24834917 6.507525,3.24850227 C6.87957459,3.22080276 7.24571776,3.3534828 7.51365357,3.61309513 C7.76804769,3.94608454 7.88905155,4.36200847 7.85299286,4.7794987 L7.85668929,6.81307013 L7.16208571,6.81306656 Z"/>
    </g>
  </g>
</svg>

<svg xmlns="http://www.w3.org/2000/svg" width="16" height="16" viewBox="0 0 16 16"><rect id="frame" width="16" height="16" fill="none"/><g fill="none" fill-rule="evenodd"><path fill="#6E6E6E" d="M1 2h1v12H1z"/><path fill="#6E6E6E" d="M2 2h2v1H2z"/><path fill="#6E6E6E" d="M2 13h2v1H2z"/><path fill="#6E6E6E" d="M14 2h1v12h-1z"/><path fill="#6E6E6E" d="M12 2h3v1h-3z"/><path fill="#6E6E6E" d="M12 13h2v1h-2z"/><g transform="translate(3 2.8)"><circle cx="5" cy="5" r="5" fill="#F98B9E" fill-opacity=".6"/><path fill="#231F20" fill-rule="nonzero" d="M7.162 6.813l-.004-1.995a1.212 1.212 0 0 0-.191-.745.7.7 0 0 0-.592-.248 1.125 1.125 0 0 0-.473.09.791.791 0 0 0-.319.263 1.17 1.17 0 0 0-.18.432c-.04.195-.06.394-.057.593l.003 1.61h-.698l-.004-1.995a1.222 1.222 0 0 0-.19-.745.695.695 0 0 0-.59-.248 1.094 1.094 0 0 0-.492.1.777.777 0 0 0-.318.293 1.368 1.368 0 0 0-.171.478 3.646 3.646 0 0 0-.051.649l.022 1.468h-.714V3.242l.56.083.1.565h.038a1.192 1.192 0 0 1 .493-.485c.101-.054.21-.093.32-.118A1.57 1.57 0 0 1 4 3.249c.264-.01.526.048.762.167.207.118.366.304.449.527h.03c.063-.115.143-.22.238-.309.092-.085.194-.158.306-.216.11-.057.227-.1.349-.127.122-.029.248-.043.374-.042.372-.028.738.104 1.006.364.254.333.375.749.339 1.166l.004 2.034h-.695z"/></g></g></svg>
